modules/hawcons-filled/icons/rock-n-roll.svg

<?xml version="1.0" encoding="UTF-8" standalone="no"?>
<svg width="32px" height="32px" viewBox="0 0 32 32" version="1.1" xmlns="http://www.w3.org/2000/svg" xmlns:xlink="http://www.w3.org/1999/xlink" xmlns:sketch="http://www.bohemiancoding.com/sketch/ns">
    <!-- Generator: Sketch 3.0.3 (7891) - http://www.bohemiancoding.com/sketch -->
    <title>icon 2 rock n roll</title>
    <desc>Created with Sketch.</desc>
    <defs></defs>
    <g id="Page-1" stroke="none" stroke-width="1" fill="none" fill-rule="evenodd" sketch:type="MSPage">
        <g id="icon-2-rock-n-roll" sketch:type="MSArtboardGroup" fill="#929292">
            <path d="M19,14 L19,12.5047388 C19,11.6736945 18.3342028,11 17.5,11 C16.6715729,11 16,11.6683155 16,12.5047388 L16,15 L15,15 L15,5.50524116 C15,4.67391942 14.3342028,4 13.5,4 C12.6715729,4 12,4.66712976 12,5.50524116 L12,15.2567418 L12,15.2567418 C9.98955659,13.0634835 7.35160658,10.6696995 6.24580826,11.7814695 C5.15863848,12.8745103 7.8026058,15.8883678 11.7146193,22.4707399 C12.1750887,23.2455281 12.6674752,23.9578607 13.2106862,24.5875008 C14.548549,26.6418224 16.8656647,28 19.5,28 C23.6421358,28 27,24.6421358 27,20.5 L27,16.7543674 L27,8.4912653 C27,7.66766222 26.3342028,7 25.5,7 C24.6715729,7 24,7.66254437 24,8.4912653 L24,15 L23,15 L23,13.5047388 C23,12.6736945 22.3342028,12 21.5,12 C20.6715729,12 20,12.6683155 20,13.5047388 L20,14 L19,14 L19,14 Z" id="rock-n-roll" sketch:type="MSShapeGroup"></path>
        </g>
    </g>
</svg>

<svg width="32" height="32" viewBox="0 0 32 32" xmlns="http://www.w3.org/2000/svg"><path d="M19 14v-1.495a1.499 1.499 0 1 0-3 0V15h-1V5.505a1.499 1.499 0 1 0-3 0v9.752c-2.01-2.194-4.648-4.587-5.754-3.476-1.087 1.094 1.557 4.107 5.469 10.69.46.775.952 1.487 1.496 2.117A7.5 7.5 0 0 0 27 20.5l-.001-3.746V8.491C27 7.668 26.334 7 25.5 7c-.828 0-1.5.663-1.5 1.491V15h-1v-1.495a1.499 1.499 0 1 0-3 0V14h-1z" fill="#929292" fill-rule="evenodd"/></svg>
